projects/seb-pictograms/svg/light/24-Picto-Light_black.svg

<svg xmlns="http://www.w3.org/2000/svg" viewBox="0 0 170 170"><path d="M74 51.7a1.5 1.5 0 01-1.1-.4L53.8 32.2A15 15 0 0174 9.9a15 15 0 0120.2 1 15 15 0 010 21.3L75.1 51.3a1.5 1.5 0 01-1.1.4zM64.4 9.5A12 12 0 0055.9 30L74 48.1 92.1 30a12 12 0 000-17 12 12 0 00-17 0 1.5 1.5 0 01-2.1 0 12 12 0 00-8.6-3.5z"/><path d="M152.3 120a16 16 0 10-17.6 16 27.3 27.3 0 01-27.1 24.5h-4.8a27.3 27.3 0 01-27.3-27.3V96.6a53.3 53.3 0 0051.7-53.2V22.9a1.5 1.5 0 00-1.5-1.5H113v3h11.3v19a50.2 50.2 0 11-100.5 0v-19h11.3v-3H22.3a1.5 1.5 0 00-1.5 1.5v20.5a53.3 53.3 0 0051.7 53.2v36.6a30.3 30.3 0 0030.3 30.3h4.8a30.3 30.3 0 0030.1-27.5 16 16 0 0014.6-16zm-16 13a13 13 0 1113-13 13 13 0 01-13 13z"/></svg>

<svg id="PIKTO_LIGHT" xmlns="http://www.w3.org/2000/svg" viewBox="0 0 170 170"><title>light_black</title><path d="M74,51.7a1.5,1.5,0,0,1-1.1-.4L53.8,32.2A15,15,0,0,1,74,9.9a15,15,0,0,1,20.2,1h0a15,15,0,0,1,0,21.3L75.1,51.3A1.5,1.5,0,0,1,74,51.7ZM64.4,9.5A12,12,0,0,0,55.9,30L74,48.1,92.1,30a12,12,0,0,0,0-17h0a12,12,0,0,0-17,0,1.5,1.5,0,0,1-2.1,0A12,12,0,0,0,64.4,9.5Z"/><path d="M152.3,120A16,16,0,1,0,134.7,136a27.3,27.3,0,0,1-27.1,24.5h-4.8a27.3,27.3,0,0,1-27.3-27.3V96.6a53.3,53.3,0,0,0,51.7-53.2V22.9a1.5,1.5,0,0,0-1.5-1.5H113v3h11.3V43.4a50.2,50.2,0,1,1-100.5,0V24.4H35.1v-3H22.3a1.5,1.5,0,0,0-1.5,1.5V43.4A53.3,53.3,0,0,0,72.5,96.6v36.6a30.3,30.3,0,0,0,30.3,30.3h4.8A30.3,30.3,0,0,0,137.7,136,16,16,0,0,0,152.3,120Zm-16,13a13,13,0,1,1,13-13A13,13,0,0,1,136.3,133Z"/></svg>
